packages/kaspersky-hexa-ui-icons/src/iconsSVGs/16/RestoreFileFromQuarantine.svg

<svg width="16" height="16" viewBox="0 0 16 16" fill="none" xmlns="http://www.w3.org/2000/svg">
<path fill-rule="evenodd" clip-rule="evenodd" d="M11.6733 9.2265C11.9271 8.97266 11.9271 8.5611 11.6733 8.30726C11.4194 8.05342 11.0079 8.05342 10.754 8.30726L9.30732 9.75397C9.05348 10.0078 9.05348 10.4194 9.30732 10.6732L10.754 12.1199C11.0079 12.3738 11.4194 12.3738 11.6733 12.1199C11.9271 11.8661 11.9271 11.4545 11.6733 11.2007L11.3375 10.8649L12.3257 10.8649C13.0943 10.924 13.7 11.5671 13.7 12.3512C13.7 13.1664 13.0456 13.8288 12.2337 13.8418C11.7456 13.8418 11.2575 13.8419 10.7694 13.842C10.4104 13.842 10.1194 14.133 10.1194 14.492C10.1194 14.8509 10.4104 15.142 10.7694 15.142C10.7743 15.142 12.2359 15.1419 12.2544 15.1416C13.775 15.1174 15 13.8774 15 12.3512C15 10.8706 13.8473 9.65972 12.39 9.56625C12.0409 9.54387 11.6855 9.56357 11.3358 9.56392L11.6733 9.2265Z" fill="black"/>
<path d="M14.8871 9.25884C14.9613 8.85047 15 8.42976 15 8C15 4.13401 11.866 1 8 1C4.13401 1 1 4.13401 1 8C1 11.866 4.13401 15 8 15C8.29548 15 8.58668 14.9817 8.87254 14.9461C8.83777 14.8004 8.81937 14.6483 8.81937 14.492C8.81937 14.1733 8.89579 13.8725 9.03131 13.6069C8.69683 13.6681 8.35214 13.7 8 13.7C4.85198 13.7 2.3 11.148 2.3 8C2.3 4.85198 4.85198 2.3 8 2.3C11.148 2.3 13.7 4.85198 13.7 8C13.7 8.17921 13.6917 8.35648 13.6756 8.53147C14.1225 8.70313 14.5316 8.95086 14.8871 9.25884Z" fill="black"/>
<path d="M7.81733 10.1725C7.80658 10.6852 7.99682 11.2012 8.38804 11.5925L9.17889 12.3833C8.135 12.6713 6.98697 12.5783 5.96037 12.044C5.86409 11.9939 5.83197 11.8732 5.88625 11.7792L6.87618 10.065C6.93093 9.97023 7.05229 9.9394 7.15115 9.98645C7.35693 10.0844 7.58057 10.15 7.81733 10.1725Z" fill="black"/>
<path d="M8.00558 9.37555L7.99991 9.37556C7.33302 9.37556 6.79198 8.83635 6.79198 8.16854C6.79198 7.50073 7.33302 6.9606 7.99991 6.9606C8.61836 6.9606 9.12809 7.42383 9.20007 8.02271L8.38804 8.83474C8.22613 8.99665 8.09864 9.17996 8.00558 9.37555Z" fill="black"/>
<path d="M12.3274 7.16588C11.5711 6.63842 10.5244 6.70887 9.84565 7.37722C9.69637 7.03268 9.45253 6.73851 9.14721 6.52524C9.05757 6.46263 9.02376 6.34225 9.07844 6.24755L10.1182 4.44667C10.1725 4.35269 10.293 4.32019 10.3845 4.37851C11.4121 5.0334 12.0834 6.05099 12.3274 7.16588Z" fill="black"/>
<path d="M3.57439 7.92123C3.56983 8.02943 3.65814 8.11714 3.76644 8.11718L5.79997 8.11795C5.90669 8.11799 5.99289 8.03258 6.00562 7.92663C6.07526 7.34734 6.39396 6.84687 6.85033 6.52714C6.93977 6.46448 6.97343 6.34427 6.91884 6.24969L5.87969 4.44932C5.82547 4.35538 5.70512 4.32276 5.61366 4.38106C5.03418 4.75036 4.53213 5.26123 4.16483 5.89688C3.79561 6.53715 3.60346 7.23107 3.57439 7.92123Z" fill="black"/>
</svg>

<svg xmlns="http://www.w3.org/2000/svg" width="16" height="16" fill="none" viewBox="0 0 16 16"><path fill="#000" fill-rule="evenodd" d="M11.6733 9.2265a.65.65 0 0 0-.9193-.9192L9.3073 9.754a.65.65 0 0 0 0 .9192l1.4467 1.4467a.65.65 0 1 0 .9193-.9192l-.3358-.3358h.9882c.7686.0591 1.3743.7022 1.3743 1.4863 0 .8152-.6544 1.4776-1.4663 1.4906l-1.4643.0002a.65.65 0 1 0 0 1.3c.0049 0 1.4665-.0001 1.485-.0004C13.775 15.1174 15 13.8774 15 12.3512c0-1.4806-1.1527-2.6915-2.61-2.785-.3491-.0223-.7045-.0026-1.0542-.0023z" clip-rule="evenodd"/><path fill="#000" d="M14.8871 9.2588A7.04 7.04 0 0 0 15 8c0-3.866-3.134-7-7-7S1 4.134 1 8s3.134 7 7 7c.2955 0 .5867-.0183.8725-.0539a1.96 1.96 0 0 1-.0531-.4541c0-.3187.0764-.6195.212-.8851A5.73 5.73 0 0 1 8 13.7c-3.148 0-5.7-2.552-5.7-5.7S4.852 2.3 8 2.3s5.7 2.552 5.7 5.7q-.0001.2689-.0244.5315c.4469.1716.856.4194 1.2115.7273"/><path fill="#000" d="M7.817 10.173a1.945 1.945 0 0 0 .571 1.42l.791.791c-1.044.288-2.192.195-3.218-.339-.096-.05-.128-.171-.074-.265l.99-1.714c.055-.095.176-.126.275-.078.206.098.429.164.666.186m.188-.798H8c-.667 0-1.208-.539-1.208-1.207S7.333 6.961 8 6.961c.619 0 1.128.463 1.2 1.062l-.812.812a1.95 1.95 0 0 0-.382.541m4.321-2.21c-.756-.527-1.803-.457-2.482.211a2.02 2.02 0 0 0-.698-.852c-.09-.063-.123-.183-.069-.278l1.04-1.801c.054-.094.175-.126.266-.068 1.028.655 1.699 1.672 1.943 2.787m-8.753.756c-.005.108.084.196.192.196l2.034.001c.107 0 .193-.085.206-.191.07-.579.388-1.08.845-1.399.09-.063.123-.183.069-.277L5.88 4.449c-.054-.094-.175-.126-.266-.068a4.406 4.406 0 0 0-1.449 1.516c-.369.64-.561 1.334-.59 2.024"/></svg>
